X:148 
T:Newborn Lamb* (polka), The
F:file ID: cre.5/148new_born
B:CRE5.102 (gan ainm)
L:1/8
M:2/4
Q:120
R:polka
K:D
c/B/|A>B AG|FA de/f/|gB ed|cB Ac/B/|
A>B AG|FA de/f/|gB ec|AB/c/ d:|
|:e|f2 ge|fd de/f/|gB ed|cB Ad/e/|
f2 ge|fe fa|Bd cB|1AB/c/ d:|\
[2 AB/c/ d2-|d4||

